X:1
T:Title
%%score { ( 1 3 ) | ( 2 4 ) }
L:1/8
Q:1/4=96
M:4/4
K:Ab
V:1 treble nm="Grand Piano"
V:3 treble 
V:2 bass 
V:4 bass 
V:1
 [CE][CA][DB][CA] [Fd]2 [Ec]2 | [DB]2 [DF]4 [=DF][DA] | G3 F E2 d2 |[M:3/4] c6 |[M:1/4] C[B,D] | %5
w: Charles~H.~Gabriel,~Jr. * * * * *|||||
[M:4/4] [CE][CA][DB][CA] [Fd]2 [Ec]2 | [FB]2 [Fd]4 [Fc][FB] | A2 E2 c3 B |[M:3/4] [CA]6 | %9
w: ||||
[M:1/4] [CA][CF] |[M:4/4] [DG][Ed][Gd][Fd] d2 GF | [CE][Ec][Ac][Fc] [Ec]2 [Ec][Ec] | %12
w: |||
 [=Dc][DB][DA][DF] [Dc]2 [DB]2 | B6 z2 |[M:3/4] [Ec][Ec] [Ec][Ec] [Fd]2 |[M:1/4] [Ec][Ec] | %16
w: ||||
[M:4/4] [=Dc][DF][_D=E][=DF] [DB]2 [DA][DA] | AG_G=G c2 B2 | [CA]6 z2 |] %19
w: |||
V:2
 [A,,A,][A,,A,][A,,E,][A,,E,] [A,,A,]2 [A,,A,]2 | [D,F,]2 [D,B,]4 [B,,B,][B,,B,] | %2
 [E,B,D]3 [E,A,D] [E,G,D]2 [E,B,E]2 |[M:3/4] [A,E]6 |[M:1/4] [A,,E,A,][A,,E,] | %5
[M:4/4] [A,,A,][A,,A,][A,,E,][A,,E,] [A,,A,]2 [A,,A,]2 | [D,A,]2 [B,,B,]4 [C,=A,][D,B,] | %7
 [E,CE]2 [E,C]2 [E,A,E]3 [E,G,D] |[M:3/4] [A,,A,]6 |[M:1/4] [A,,A,][A,,A,] | %10
[M:4/4] [E,B,][E,G,][E,B,][E,A,] [E,G,E]2 [E,B,E][E,G,D] | %11
 [A,,A,][A,,A,][A,,A,][A,,A,] [A,,A,]2 [A,,A,][A,,A,] | %12
 [B,,A,][B,,A,][B,,F,][B,,B,] [B,,A,]2 [B,,A,]2 | .[G,E]2 z2 z4 | %14
[M:3/4] [A,,A,][A,,A,] [A,,A,][A,,A,] [A,,A,]2 |[M:1/4] [A,,A,][A,,A,] | %16
[M:4/4] [B,,A,][B,,A,][B,,G,][B,,A,] [B,,F,]2 [B,,F,][B,,B,] | %17
 [E,B,D][E,B,D][E,=A,D][E,B,D] [E,G,E]2 [E,G,D]2 | [A,,A,]6 z2 |] %19
V:3
 x8 | x8 | x8 |[M:3/4] x6 |[M:1/4] x2 |[M:4/4] x8 | x8 | x8 |[M:3/4] x6 |[M:1/4] x2 |[M:4/4] x8 | %11
 x8 | x8 | z FGF E2 [Ge][Fd] |[M:3/4] x6 |[M:1/4] x2 |[M:4/4] x8 | x8 | x8 |] %19
V:4
 x8 | x8 | x8 |[M:3/4] x6 |[M:1/4] x2 |[M:4/4] x8 | x8 | x8 |[M:3/4] x6 |[M:1/4] x2 |[M:4/4] x8 | %11
 x8 | x8 | E,-[E,-A,][E,-B,][E,-A,] [E,G,]2 [E,B,][E,G,] |[M:3/4] x6 |[M:1/4] x2 |[M:4/4] x8 | x8 | %18
 x8 |] %19

